X: 194
T: 9me ETUDE.	 Op. 25
C: Fryderyk Chopin
%%abc-version 2.0
%%abcx-abcm2ps-target-version 5.9.1 (29 Sep 2008)
%%abc-creator hum2abc beta
%%abcx-conversion-date 2021/10/03 11:23:29
%%abc-edited-by Wojciech Jakubiak-Danek
%%abc-edited-by Mateusz Mrugas
%%abc-edited-by Jędrzej Mróz
%%abcx-initial-encoding-date 2018-10-21
%%humdrum-veritas 1954666130
%%humdrum-veritas-data 673175231
%%linebreak <none>
%%barnumbers 0
L: 1/16
M: 2/4
N: Derived from 025_7-12-1a-BH-009.krn
P: Douze Etudes pour le Piano
Q: "([quarter] = 112.)" 1/4=112
%%staves {1 2}
V: 1 clef=treble
V: 2 clef=bass
K: Gb
[V:1] B2 x2 d2 x2 & !accent!B[bg].[c'c].[=c'=c] !accent!d[d'a].[e'e].[d'd] | 
[V:2] .G,2.[G2D2B,2] .F,2.[A2D2A,2] | 
[V:1] G2 x2 B2 x2 & !accent!G[ge].[aA].[=a=A] !accent!B[bf].[c'c].[bB] | 
[V:2] .E,2.[E2B,2G,2] .D,2.[F2B,2F,2] | 
[V:1] E2 x2 G2 x2 & !accent!E[ec].[=e=E].[fF] !accent!G[gd].[fF].[gG] | 
[V:2] .C,2.[C2G,2] .B,,2.[D2G,2D,2] | 
[V:1] A2 x2 A2 x2 & !accent!A[ae].[bB].[aA] !accent!A[af].[bB].[c'c] | 
[V:2] .=C,2.[E2A,2G,2] .D,2.[F2D2_C2] | 
[V:1] b2 x2 d2 x2 & !accent!gB.[c'c].[=c'=c] !accent!d[d'a].[e'e].[d'd] | 
[V:2] .G,2.[G2B,2] .F,2.[A2D2A,2] | 
[V:1] g2 x2 B2 x2 & !accent!eG.[aA].[=a=A] !accent!B[bf].[c'c].[bB] | 
[V:2] .E,2.[E2B,2G,2] .D,2.[F2B,2F,2] | 
[V:1] e2 x2 G2 x2 & !accent!cE.[=e=E].[fF] !accent!G[gd].[fF].[gG] | 
[V:2] .C,2.[C2G,2] .B,,2.[D2G,2D,2] | 
[V:1] A2 x2 G2 x2 & !accent!A[ag][bfB][aA] !accent!G[gd].[fF].[gG] | 
[V:2] [E2G,2=C,2][F2_C2D,2][B,2G,2] z2 | 
[V:1] A2 x2 A2 x2 & A[af].[bB].[aA] A[ag].[=c'=c].[d'd] | 
[V:2] .D,2.[F2D2A,2] .=C,2.[G2E2A,2] | 
[V:1] e2 x2 =e2 f2 & e[e'a].[=d'=d].[e'e] =e[=e'a]f[f'a] | 
[V:2] .A,,2.[G2C2A,2] .D,2.[F2D2A,2] | 
[V:1] _e2 x2 A2 x2 & _e[e'b].[d'd].[bB] A[ad].[=g=G].[aA] | 
[V:2] .=G,,2.[D2B,2=E,2] .A,,2.[D2A,2F,2] | 
[V:1] B2 x2 =E2 F2 & B[b=c].[aA].[gG] =E[=ed]F[fd] | 
[V:2] .A,,2.[=C2A,2G,2_E,2] .D,2.[D2A,2] | 
[V:1] f2 x2 A2 x2 & dF.[gG].[=g=G] A[ae].[bB].[=c'=c] | 
[V:2] .D,2.[D2A,2] .C,2.[E2A,2] | 
[V:1] _d'2 x2 e2 f2 & =gd.[e'e].[=e'=e] e[e'a]f[f'a] | 
[V:2] .B,,2.[=G2D2B,2] .A,,2.[A2D2A,2] | 
[V:1] _e'2 x2 A2 x2 & be.[d'd].[bB] A[ad].[=g=G].[aA] | 
[V:2] .[=G,2=G,,2][K:clef=treble].[B2E2D2][K:clef=bass] .A,,2.[D2A,2F,2] | 
[V:1] =c2 x2 d2 x2 & =c[=c'_g].[bB].[aA] d[d'f].[c'c].[d'd] | 
[V:2] .A,,,2.[=C2_G,2E,2] .D,,2.[F2D2A,2] | 
[V:1] d2 x2 d2 x2 & d[d'b].[_f'_f].[e'e] d[d'a].[c'c].[bB] | 
[V:2] .D,2.[=G2B,2] .D,2.[A2C2] | 
[V:1] c2 x2 c2 x2 & c[c'f].[__e'__e].[d'd] c[_e'g].[__b__B].[aA] | 
[V:2] .D,2.[F2A,2] .D,2.[G2__B,2] | 
[V:1] G2 x2 A2 x2 & G[ge].[__b__B].[aA] A[ae].[=g=G].[_g_G] | 
[V:2] .D,,2.[=C2E,2] .D,,2.[C2E,2] | 
[V:1] F2 x2 A2 x2 & F[fd].[gG].[=g=G] A[ad]d[d'a] | 
[V:2] .D,,2.[D2F,2] .D,2.[F2A,2] | 
[V:1] d''2 x2 d''2 x2 & b'd'.[_f''_f'].[=E=D] a'd'.[c''c'].[b'b] | 
[V:2] .D,2.[=G2B,2] .D,2.[A2C2] | 
[V:1] c''2 x2 c''2 x2 & f'c'.[__e''__e'].[d''d'] g'c'.[__b'__b].[a'a] | 
[V:2] .D,2.[F2A,2] .D,2.[G2__B,2] | 
[V:1] g'2 x2 a2 x2 & e'g.[__b'__b].[a'a] a[a'e'].[__a'__a].[g'g] | 
[V:2] .D,,2.[G2=C2__B,2] .D,2.[G2C2A,2] | 
[V:1] g2 x2 __e2 x2 & g[g'_c'].[f'f].[e'e] __e[_e'a].[d'd].[c'c] | 
[V:2] .D,2.[G2_C2A,2] .D,2.[F2C2A,2] | 
[V:1] B2 x2 d2 x2 & B[bg].[c'c].[=c'=c] d[d'a].[e'e].[d'd] | 
[V:2] .[G,2G,,2].[G2D2B,2] .[F,2F,,2].[A2D2A,2] | 
[V:1] G2 x2 B2 x2 & G[ge].[aA].[=a=A] B[bf].[c'c].[bB] | 
[V:2] .[E,2E,,2].[E2B,2G,2] .[D,2D,,2].[F2B,2F,2] | 
[V:1] E2 x2 G2 x2 & E[ec].[=e=E].[fF] G[gd].[fF].[gG] | 
[V:2] .[C,2C,,2].[C2G,2E,2] .[B,,2B,,,2].[D2G,2D,2] | 
[V:1] A2 x2 A2 x2 & A[ag].[bB].[aA] A[af].[bB].[c'c] | 
[V:2] .[=C,2=C,,2].[E2A,2G,2] .[D,2D,,2].[F2_C2A,2] | 
[V:1] B2 x2 d2 x2 & B[bg].[c'c].[=c'=c] d[d'a].[e'e].[d'd] | 
[V:2] .[G,2G,,2].[G2D2B,2] .[F,2F,,2].[A2D2A,2] | 
[V:1] c2 x2 e2 x2 & c[c'a].[d'd].[=d'=d] e[e'b].[_f'_f].[e'e] | 
[V:2] .[A,2A,,2].[A2E2C2] .[=G,2=G,,2][K:clef=treble].[B2E2B,2][K:clef=bass] | 
[V:1] e2 x2 g2 x2 & e[e'c'].[=e'=e].[f'f] g[g'd'].[f'f].[g'g] | 
[V:2] .[C2C,2][K:clef=treble].[c2G2E2][K:clef=bass] .[B,2B,,2][K:clef=treble].[d2G2D2][K:clef=bass] | 
[V:1] a2 x2 __b2 x2 & a[a'g'e'].[=g'=g].[a'a] __b[__b'_g'e'].[a'a].[b'b] | 
[V:2] .[=C2=C,2][K:clef=treble].[e2G2] z2[K:clef=bass] [=C,2=C,,2] | 
[V:1] b2 x2 b2 x2 & b[b'g'].[c''c'].[b'b] b[b'f'].[__b'__b].[a'a] | 
[V:2] .[D,2D,,2].[G2B,2] .[=D,2=D,,2].[F2B,2] | 
[V:1] a2 x2 g2 x2 & a[a'e'].[__a'__a].[g'g] g[g'__b].[f'f].[e'e] | 
[V:2] .[E,2E,,2].[G2E2B,2] .[C,2C,,2].[G2E2__B,2] | 
[V:1] e2 x2 d2 x2 & e[e'a].[__e'__e].[d'd] d[d'a].[__d'__d].[c'c] | 
[V:2] .[D,2D,,2].[G2D2A,2]z4 | 
[V:1] !accent!=c[c'__e].[bB].[__b__B] !accent!B[b=c]!accent!A[ad-] & c2 x2 B2 x2 | 
[V:2] .[D,,2D,,,2].[F2C2A,2]z4 | 
[V:1] x4A2 x2 & [g4d4G4]A[ad].[bB].[c'c] | 
[V:2] .G,,,2D,2 .[C2F,2].G,,2 | 
[V:1] d2 x2 A2 x2 & d[d'g].[e'e].[d'd] A[ad].[bB].[aA] | 
[V:2] .[B,2G,2D,2].G,,2 .[C2F,2D,2].G,,2 | 
[V:1] D2 x2 A2 x2 & D[dB].[fF].[gG] A[ad].[bB].[c'c] | 
[V:2] .[B,2G,2D,2].G,,2 .[C2F,2D,2].G,,2 | 
[V:1] d2 x2 A2 x2 & d[d'g].[e'e].[d'd] A[ad].[bB].[aA] | 
[V:2] .[B,2G,2D,2].G,,2 .[C2F,2D,2].G,,2 | 
[V:1] x4a'2 x2 & .[g2G2] z2 d'a.[b'b].[c''c'] | 
[V:2] .[B,2G,2D,2].G,,2 .[C2F,2D,2].G,,2 | 
[V:1] d''2 x2 a'2 x2 & g'd'.[e''e'].[d''d'] d'a.[b'b].[a'a] | 
[V:2] .[B,2G,2D,2].G,,2 .[C2F,2D,2].G,,2 | 
[V:1] d'2 x2 a'2 x2 & bd.[f'f].[g'g] d'a.[b'b].[_c''_c'] | 
[V:2] .[B,2G,2D,2].G,,2 .[C2F,2D,2].G,,2 | 
[V:1] d''2 x2 a'2 x2 & g'd'.[e''e'].[d''d'] d'a.[b'b].[a'a] | 
[V:2] .[B,2G,2D,2].G,,2 .[C2F,2D,2].G,,2 | 
[V:1] gg'[c''e'][b'd'] bg'[c''e'][b'd'] | 
[V:2] [B,2D,2] .G,,,2.D,2.[D2G,2][K:clef=treble] | 
[V:1] bg'[c''e'][b'd'] bg'[c''e'][b'd'] | 
[V:2] .[G2B,2].[B2D2].[d2G2].[g2B2] | 
[V:1] bg'[c''e'][b'd'] bg'[c''e'][b'd'] | 
[V:2] .[d2G2].[B2D2][K:clef=bass].[G2G,2].[D2D,2] | 
[V:1] bg'[c''e'][b'd'] bg'[c''e'][b'd'] | 
[V:2] .[G,2G,,2].[D,2D,,2] .[G,,2G,,,2].[D,,2D,,,2] | 
[V:1] [g'2b2] z2z4 | 
[V:2] .[G,,2G,,,2].[D,,2D,,,2] .[G,,2G,,,2].[D,,2D,,,2] | 
[V:1] z4B,G[cE][BD] | 
[V:2] .[G,,2G,,,2].[D,,2D,,,2] .[G,,2G,,,2].[D,2D,,2] | 
[V:1] .[G2B,2] z2z4 |]  
[V:2] .[G,2G,,2] z2z4 |]
